packages/core/src/svgs/tokens/mono/KUNCI.svg

<svg width="24" height="24" viewBox="0 0 24 24" fill="none" xmlns="http://www.w3.org/2000/svg">
<path d="M17.1737 7.26294C16.0947 7.26956 15.0485 7.63527 14.2003 8.30238C13.3522 8.9695 12.7502 9.89999 12.4896 10.9472H2V13.0525H12.4843C12.9948 15.1261 14.9053 16.7367 17.1685 16.7367C18.4369 16.7479 19.6581 16.2554 20.5639 15.3674C21.4696 14.4794 21.9861 13.2682 22 11.9998C22 9.38924 19.8316 7.26294 17.1737 7.26294ZM17.2632 14.6314C16.5653 14.6314 15.8959 14.3541 15.4024 13.8607C14.9089 13.3671 14.6316 12.6978 14.6316 11.9998C14.6316 11.3018 14.9089 10.6325 15.4024 10.139C15.8959 9.64541 16.5653 9.36824 17.2632 9.36824C17.9611 9.36824 18.6305 9.64541 19.124 10.139C19.6175 10.6325 19.8948 11.3018 19.8948 11.9998C19.8948 12.6978 19.6175 13.3671 19.124 13.8607C18.6305 14.3541 17.9611 14.6314 17.2632 14.6314ZM9.75795 7.33662C9.75795 8.11557 9.17371 8.74715 8.43686 8.73136C7.71581 8.73136 7.12634 8.09979 7.14213 7.31031V7.26294H5.88423V7.28926C5.88423 8.0682 5.30002 8.70504 4.56843 8.68926C3.84211 8.68926 3.25264 8.05768 3.26843 7.26294H2V10.4208H10.9316L10.9473 7.26294H9.75795V7.33662ZM18.3158 11.9998C18.3158 12.5839 17.6158 13.0525 16.7368 13.0525V10.9472C17.6001 10.9472 18.3158 11.4156 18.3158 11.9998Z" fill="white"/>
</svg>

<svg xmlns="http://www.w3.org/2000/svg" width="24" height="24" fill="none" viewBox="0 0 24 24">
    <path fill="#fff" d="M17.174 7.263a4.86 4.86 0 0 0-4.684 3.684H2v2.106h10.484c.51 2.073 2.421 3.684 4.685 3.684A4.79 4.79 0 0 0 22 12c0-2.61-2.168-4.737-4.826-4.737m.09 7.368a2.632 2.632 0 1 1 0-5.264 2.632 2.632 0 0 1 0 5.264M9.757 7.337c0 .779-.584 1.41-1.321 1.394-.721 0-1.31-.631-1.295-1.42v-.048H5.884v.026c0 .78-.584 1.416-1.316 1.4-.726 0-1.315-.631-1.3-1.426H2v3.158h8.932l.015-3.158H9.758zM18.316 12c0 .584-.7 1.053-1.58 1.053v-2.106c.864 0 1.58.469 1.58 1.053"/>
</svg>
